BOEHME
CUT[KOMM TROST DER NACHT]
REG[Europa, Mitteleuropa, Deutschland]
TRD[]
FKT[]
SIG[B0766]
KEY[B0766   04  D 4/4]
MEL[1  5315  665
    5  67+17  665
    3  6543  2_1
    1  5315  665
    5  67+17  665
    3  6543  2_10
    5_3_  5_3_
    4323  4323
    432_  1_
    +17  6543  2_1 //]
BEM[]
MEL_SEM[7 -3 -4 7 2 0 -2 0 2 2 1 -1 -2 0 -2 -3 5 -2 -2 -1 -2 -2 0 7 -3 -4 7 2 0 -2 0 2 2 1 -1 -2 0 -2 -3 5 -2 -2 -1 -2 -2 7 -3 3 -3 1 -1 -2 2 1 -1 -2 2 1 -1 -2 -2 12 -1 -2 -2 -2 -1 -2 -2]
MEL_RAW[1  5315  665
    5  67+17  665
    3  6543  21
    1  5315  665
    5  67+17  665
    3  6543  210
    53  53
    4323  4323
    432  1
    +17  6543  21]
NO_REP[1531565
    567+1765
    3654321
    1531565
    567+1765
    36543210
    5353
    43234323
    4321
    +17654321]
RTM[x  xxxx  xxx
    x  xxxx  xxx
    x  xxxx  x_x
    x  xxxx  xxx
    x  xxxx  xxx
    x  xxxx  x_xx
    x_x_  x_x_
    xxxx  xxxx
    xxx_  x_
    xx  xxxx  x_x]
SCL_DEG[1234567+1]
SCL_SEM[2 2 1 2 2 2 1]

